X: 74
M: C|
L: 1/8
K: G
|:\
g2ba g2fe | abag fd de/f/ |\
gfe2 d2cB | cAdc BGGd |
gbab gafg | eaag fd de/f/ |\
gbfa egd=f | ecAd BG G H|]
dBdg dg dB/c/ | dBGB cA AB/c/ |\
dBGB dgdB | cABG FA AB/c/ |
dBdg dg dB/c/ | dBGB cA AB/c/ |\
dgfe dbag | faef def"_D.C."d |]

